img/guarantee/icon6.svg

<svg width="57" height="57" viewBox="0 0 57 57" fill="none" xmlns="http://www.w3.org/2000/svg">
<circle cx="28.5" cy="28.5" r="28" stroke="#009CA1"/>
<path fill-rule="evenodd" clip-rule="evenodd" d="M20.5345 14.1335C19.7084 14.57 19.6337 15.7148 20.3997 16.1975L20.6014 16.3245L20.6047 17.2138C20.6065 17.7029 20.6255 18.1686 20.647 18.2486C20.7259 18.5433 20.9295 18.5795 22.5087 18.5795H23.9728V21.3109H22.7659C21.18 21.3109 21.305 21.1859 21.305 22.7718V23.9787H18.5736V22.5146C18.5736 20.9354 18.5374 20.7318 18.2426 20.6529C18.1626 20.6314 17.697 20.6124 17.2079 20.6106L16.3186 20.6073L16.1915 20.4056C15.7049 19.6332 14.552 19.7159 14.1243 20.5541C13.9166 20.9614 13.9968 21.5629 14.3042 21.9029C14.7779 22.4267 15.8027 22.363 16.1761 21.7866L16.3186 21.5665L17.6208 21.565V23.0229C17.6208 24.5707 17.6478 24.7386 17.9166 24.861C18.0171 24.9068 18.6385 24.9315 19.6882 24.9315H21.305V27.0912H16.3672L16.2042 26.8448C15.9967 26.5313 15.5901 26.329 15.1676 26.329C14.1649 26.329 13.6204 27.5882 14.3059 28.322C14.676 28.7183 15.217 28.8364 15.686 28.6233C15.9297 28.5127 16.2868 28.1654 16.2868 28.0391C16.2868 28.0043 17.3046 27.9805 18.7959 27.9805H21.305V30.1402H18.7959C17.3046 30.1402 16.2868 30.1164 16.2868 30.0816C16.2868 29.9554 15.9297 29.608 15.686 29.4974C15.217 29.2843 14.676 29.4024 14.3059 29.7987C13.6204 30.5325 14.1649 31.7917 15.1676 31.7917C15.5901 31.7917 15.9967 31.5894 16.2042 31.2759L16.3672 31.0295H21.305V33.1892H19.6882C18.6385 33.1892 18.0171 33.2139 17.9166 33.2597C17.6478 33.3822 17.6208 33.55 17.6208 35.0978V36.5558L16.3186 36.5542L16.1761 36.3341C15.7983 35.751 14.7835 35.6879 14.3042 36.2178C13.9968 36.5579 13.9166 37.1593 14.1243 37.5666C14.552 38.4048 15.7049 38.4875 16.1915 37.7151L16.3186 37.5135L17.2079 37.5101C17.697 37.5083 18.1626 37.4893 18.2426 37.4678C18.5374 37.3889 18.5736 37.1853 18.5736 35.6061V34.142H21.305V35.3378C21.305 36.9216 21.1925 36.8098 22.7859 36.8098H23.9728V39.5412H22.5087C20.9295 39.5412 20.7259 39.5774 20.647 39.8722C20.6255 39.9521 20.6065 40.4178 20.6047 40.9069L20.6014 41.7962L20.3997 41.9232C19.6273 42.4099 19.71 43.5628 20.5482 43.9904C20.9555 44.1982 21.557 44.118 21.897 43.8105C22.4208 43.3369 22.3571 42.3121 21.7807 41.9387L21.5606 41.7962L21.559 40.494H23.017C24.5648 40.494 24.7327 40.467 24.8551 40.1982C24.9009 40.0977 24.9256 39.4762 24.9256 38.4266V36.8098H27.0853V41.7475L26.8389 41.9106C26.5254 42.118 26.3231 42.5246 26.3231 42.9472C26.3231 43.7452 27.196 44.3337 27.9546 44.0471C28.3626 43.8929 28.7341 43.3501 28.7341 42.9078C28.7341 42.5791 28.5312 42.1904 28.2356 41.953L27.9746 41.7431V36.8098H30.1343V41.7431L29.8733 41.953C29.5777 42.1904 29.3748 42.5791 29.3748 42.9078C29.3748 43.3501 29.7462 43.8929 30.1543 44.0471C30.9129 44.3337 31.7858 43.7452 31.7858 42.9472C31.7858 42.5246 31.5835 42.118 31.27 41.9106L31.0236 41.7475V36.8098H33.1833V38.4266C33.1833 39.4762 33.208 40.0977 33.2538 40.1982C33.3762 40.467 33.5441 40.494 35.0919 40.494H36.5498L36.5483 41.7962L36.3282 41.9387C35.745 42.3165 35.682 43.3313 36.2119 43.8105C36.5519 44.118 37.1534 44.1982 37.5607 43.9904C38.3989 43.5628 38.4816 42.4099 37.7092 41.9232L37.5075 41.7962L37.5042 40.9069C37.5024 40.4178 37.4834 39.9521 37.4619 39.8722C37.383 39.5774 37.1794 39.5412 35.6002 39.5412H34.1361V36.8098H35.3319C36.9157 36.8098 36.8039 36.9223 36.8039 35.3289V34.142H39.5353V35.6061C39.5353 37.1853 39.5715 37.3889 39.8662 37.4678C39.9462 37.4893 40.4119 37.5083 40.901 37.5101L41.7903 37.5135L41.9173 37.7151C42.404 38.4875 43.5569 38.4048 43.9845 37.5666C44.3017 36.9448 43.9465 36.0891 43.2877 35.8883C42.8096 35.7426 42.1822 35.9491 41.9328 36.3341L41.7903 36.5542L40.4881 36.5558V35.0978C40.4881 33.55 40.4611 33.3822 40.1923 33.2597C40.0918 33.2139 39.4703 33.1892 38.4207 33.1892H36.8039V31.0295H41.7416L41.9047 31.2759C42.1121 31.5894 42.5187 31.7917 42.9413 31.7917C43.7393 31.7917 44.3278 30.9188 44.0412 30.1602C43.887 29.7522 43.3442 29.3808 42.9019 29.3808C42.5732 29.3808 42.1845 29.5836 41.947 29.8792L41.7372 30.1402H36.8039V27.9805H41.7372L41.947 28.2415C42.1845 28.5371 42.5732 28.74 42.9019 28.74C43.3442 28.74 43.887 28.3686 44.0412 27.9605C44.3278 27.2019 43.7393 26.329 42.9413 26.329C42.5187 26.329 42.1121 26.5313 41.9047 26.8448L41.7416 27.0912H36.8039V24.9315H38.4207C39.4703 24.9315 40.0918 24.9068 40.1923 24.861C40.4611 24.7386 40.4881 24.5707 40.4881 23.0229V21.565L41.7903 21.5665L41.9328 21.7866C42.1497 22.1213 42.5194 22.2826 43.0002 22.252C43.3122 22.2321 43.4443 22.189 43.6317 22.0462C44.0771 21.7065 44.234 21.043 43.9845 20.5541C43.5569 19.7159 42.404 19.6332 41.9173 20.4056L41.7903 20.6073L40.901 20.6106C40.4119 20.6124 39.9462 20.6314 39.8662 20.6529C39.5715 20.7318 39.5353 20.9354 39.5353 22.5146V23.9787H36.8039V22.7829C36.8039 21.1991 36.9164 21.3109 35.323 21.3109H34.1361V18.5795H35.6002C37.1794 18.5795 37.383 18.5433 37.4619 18.2486C37.4834 18.1686 37.5024 17.7029 37.5042 17.2138L37.5075 16.3245L37.7092 16.1975C38.4816 15.7108 38.3989 14.5579 37.5607 14.1303C37.1534 13.9225 36.5519 14.0027 36.2119 14.3102C35.682 14.7894 35.745 15.8042 36.3282 16.182L36.5483 16.3245L36.5498 17.6267H35.0919C33.5441 17.6267 33.3762 17.6537 33.2538 17.9225C33.208 18.023 33.1833 18.6445 33.1833 19.6941V21.3109H31.0236V16.3732L31.27 16.2101C31.5835 16.0027 31.7858 15.5961 31.7858 15.1736C31.7858 14.3755 30.9129 13.787 30.1543 14.0736C29.7462 14.2278 29.3748 14.7706 29.3748 15.2129C29.3748 15.5416 29.5777 15.9303 29.8733 16.1678L30.1343 16.3776V21.3109H27.9746V18.8018C27.9746 17.3105 27.9984 16.2928 28.0332 16.2928C28.1594 16.2928 28.5068 15.9356 28.6174 15.6919C28.8305 15.2229 28.7124 14.682 28.3161 14.3118C27.5823 13.6264 26.3231 14.1708 26.3231 15.1736C26.3231 15.5961 26.5254 16.0027 26.8389 16.2101L27.0853 16.3732V21.3109H24.9256V19.6941C24.9256 18.6445 24.9009 18.023 24.8551 17.9225C24.7327 17.6537 24.5648 17.6267 23.017 17.6267H21.559L21.5606 16.3245L21.7807 16.182C22.3639 15.8042 22.4269 14.7894 21.897 14.3102C21.558 14.0036 20.9336 13.9226 20.5345 14.1335ZM20.908 14.9639C20.7539 15.0536 20.7616 15.3802 20.9197 15.4648C20.9872 15.5009 21.071 15.5305 21.1057 15.5305C21.2101 15.5305 21.3685 15.339 21.3685 15.2129C21.3685 15.0798 21.2072 14.8943 21.094 14.8972C21.0528 14.8983 20.9691 14.9283 20.908 14.9639ZM27.3121 14.9951C27.1777 15.1296 27.1864 15.2968 27.3348 15.4311C27.5917 15.6636 27.9466 15.3418 27.7553 15.0499C27.6392 14.8727 27.4571 14.8502 27.3121 14.9951ZM30.3536 15.0499C30.1623 15.3418 30.5172 15.6636 30.7741 15.4311C30.9279 15.2919 30.9303 15.1361 30.7804 15.0005C30.6172 14.8528 30.4716 14.8696 30.3536 15.0499ZM36.8402 14.9951C36.7853 15.0501 36.7404 15.1481 36.7404 15.2129C36.7404 15.339 36.8988 15.5305 37.0032 15.5305C37.1732 15.5305 37.3121 15.3877 37.3121 15.2129C37.3121 14.9338 37.0312 14.8042 36.8402 14.9951ZM14.9516 20.9322C14.8626 21.0985 14.925 21.2935 15.0832 21.3437C15.3769 21.4369 15.6018 21.1928 15.4623 20.9322C15.3683 20.7563 15.0457 20.7563 14.9516 20.9322ZM42.6465 20.9322C42.5575 21.0985 42.6198 21.2935 42.7781 21.3437C43.0718 21.4369 43.2967 21.1928 43.1572 20.9322C43.0632 20.7563 42.7406 20.7563 42.6465 20.9322ZM22.1943 35.9206H35.9146V22.2002H22.1943V35.9206ZM23.7187 23.7246C23.5938 23.8496 23.5917 23.9364 23.5917 29.0493V34.2469L23.8857 34.5231H34.2409L34.5172 34.2291V23.8739L34.2232 23.5976H29.0345C23.9305 23.5976 23.8437 23.5997 23.7187 23.7246ZM24.481 33.6338H33.6279V24.4869H24.481V33.6338ZM14.9888 27.3407C14.7563 27.5976 15.0781 27.9525 15.37 27.7612C15.5537 27.6409 15.5688 27.4685 15.4084 27.3234C15.2556 27.1851 15.1247 27.1906 14.9888 27.3407ZM42.6841 27.3181C42.5392 27.463 42.5617 27.6451 42.7388 27.7612C43.0308 27.9525 43.3526 27.5976 43.1201 27.3407C42.9858 27.1923 42.8185 27.1836 42.6841 27.3181ZM15.0306 30.3661C14.9529 30.4205 14.8894 30.5161 14.8894 30.5786C14.8894 30.7131 15.0815 30.9024 15.218 30.9024C15.3406 30.9024 15.5246 30.7015 15.5246 30.5676C15.5246 30.4773 15.3024 30.2672 15.207 30.2672C15.1876 30.2672 15.1082 30.3118 15.0306 30.3661ZM42.7255 30.3661C42.554 30.4862 42.5442 30.6559 42.7005 30.7973C42.8514 30.934 42.9839 30.9304 43.1144 30.7863C43.2517 30.6345 43.247 30.5488 43.0924 30.3943C42.9395 30.2413 42.9072 30.2388 42.7255 30.3661ZM14.9892 36.8461C14.8722 36.9632 14.8658 37.0282 14.9551 37.1952C15.0878 37.443 15.5246 37.3003 15.5246 37.0091C15.5246 36.9047 15.3331 36.7463 15.207 36.7463C15.1421 36.7463 15.0441 36.7912 14.9892 36.8461ZM42.6841 36.8461C42.5671 36.9632 42.5607 37.0282 42.65 37.1952C42.7827 37.443 43.2195 37.3003 43.2195 37.0091C43.2195 36.9047 43.028 36.7463 42.9019 36.7463C42.837 36.7463 42.739 36.7912 42.6841 36.8461ZM20.908 42.6588C20.7539 42.7485 20.7616 43.075 20.9197 43.1596C20.9872 43.1958 21.071 43.2254 21.1057 43.2254C21.2101 43.2254 21.3685 43.0339 21.3685 42.9078C21.3685 42.7747 21.2072 42.5892 21.094 42.5921C21.0528 42.5932 20.9691 42.6232 20.908 42.6588ZM27.3175 42.7064C27.1809 42.8574 27.1844 42.9898 27.3285 43.1203C27.4877 43.2643 27.6311 43.2521 27.7487 43.0842C27.876 42.9025 27.8735 42.8702 27.7205 42.7172C27.5628 42.5595 27.453 42.5565 27.3175 42.7064ZM30.3508 42.749C30.2544 42.8961 30.2544 42.9195 30.3508 43.0666C30.4737 43.2542 30.6452 43.2708 30.7914 43.1092C30.928 42.9582 30.9245 42.8258 30.7804 42.6953C30.6161 42.5467 30.4715 42.5647 30.3508 42.749ZM36.8402 42.69C36.7853 42.7449 36.7404 42.8429 36.7404 42.9078C36.7404 43.0339 36.8988 43.2254 37.0032 43.2254C37.1732 43.2254 37.3121 43.0826 37.3121 42.9078C37.3121 42.6287 37.0312 42.499 36.8402 42.69Z" fill="url(#paint0_linear_3132_3813)"/>
<defs>
<linearGradient id="paint0_linear_3132_3813" x1="14" y1="14" x2="44.7232" y2="44.8677" gradientUnits="userSpaceOnUse">
<stop stop-color="#0ABD92"/>
<stop offset="1" stop-color="#009DB8"/>
</linearGradient>
</defs>
</svg>

<svg width="57" height="57" fill="none" xmlns="http://www.w3.org/2000/svg"><circle cx="28.5" cy="28.5" r="28" stroke="#009CA1"/><path fill-rule="evenodd" clip-rule="evenodd" d="M20.535 14.133c-.827.437-.901 1.582-.135 2.065l.201.127.004.889c.002.489.02.955.042 1.035.079.294.283.33 1.862.33h1.464v2.732h-1.207c-1.586 0-1.461-.125-1.461 1.46v1.208h-2.731v-1.464c0-1.58-.037-1.783-.331-1.862-.08-.022-.546-.04-1.035-.042l-.89-.004-.127-.201c-.486-.773-1.639-.69-2.067.148-.207.407-.127 1.009.18 1.349.474.524 1.499.46 1.872-.116l.143-.22 1.302-.002v1.458c0 1.548.027 1.716.296 1.838.1.046.721.07 1.771.07h1.617v2.16h-4.938l-.163-.246c-.207-.314-.614-.516-1.036-.516-1.003 0-1.548 1.26-.862 1.993.37.396.911.514 1.38.301.244-.11.6-.458.6-.584 0-.035 1.019-.059 2.51-.059h2.509v2.16h-2.51c-1.49 0-2.508-.024-2.508-.058 0-.127-.357-.474-.601-.585-.469-.213-1.01-.095-1.38.302-.686.733-.141 1.993.862 1.993.422 0 .829-.203 1.036-.516l.163-.247h4.938v2.16h-1.617c-1.05 0-1.67.025-1.771.07-.27.123-.296.291-.296 1.839v1.458l-1.302-.002-.143-.22c-.378-.583-1.392-.646-1.872-.116-.307.34-.387.941-.18 1.349.428.838 1.58.92 2.068.148l.127-.202.889-.003c.489-.002.955-.02 1.035-.042.294-.08.33-.283.33-1.862v-1.464h2.732v1.196c0 1.584-.113 1.472 1.48 1.472h1.188v2.731h-1.464c-1.58 0-1.783.036-1.862.331-.021.08-.04.546-.042 1.035l-.004.89-.201.126c-.773.487-.69 1.64.148 2.067.408.208 1.009.128 1.349-.18.524-.473.46-1.498-.116-1.871l-.22-.143-.002-1.302h1.458c1.548 0 1.716-.027 1.838-.296.046-.1.07-.722.07-1.771V36.81h2.16v4.938l-.246.163c-.314.207-.516.614-.516 1.036 0 .798.873 1.387 1.632 1.1.408-.154.78-.697.78-1.14 0-.328-.204-.717-.5-.954l-.26-.21V36.81h2.16v4.933l-.262.21c-.295.237-.498.626-.498.955 0 .442.371.985.78 1.14.758.286 1.63-.303 1.63-1.1 0-.423-.201-.83-.515-1.037l-.246-.163V36.81h2.16v1.617c0 1.05.024 1.67.07 1.771.122.269.29.296 1.838.296h1.458l-.002 1.302-.22.143c-.583.377-.646 1.392-.116 1.871.34.308.941.388 1.349.18.838-.427.92-1.58.148-2.067l-.202-.127-.003-.89c-.002-.488-.02-.954-.042-1.034-.079-.295-.283-.33-1.862-.33h-1.464V36.81h1.196c1.584 0 1.472.112 1.472-1.481v-1.187h2.731v1.464c0 1.58.037 1.783.331 1.862.08.021.546.04 1.035.042l.89.004.126.201c.487.772 1.64.69 2.067-.148.318-.622-.038-1.478-.696-1.679-.478-.145-1.106.061-1.355.446l-.143.22-1.302.002v-1.458c0-1.548-.027-1.716-.296-1.838-.1-.046-.722-.07-1.771-.07h-1.617v-2.16h4.938l.163.246c.207.313.614.516 1.036.516.798 0 1.387-.873 1.1-1.632-.154-.408-.697-.78-1.14-.78-.328 0-.717.204-.954.5l-.21.26h-4.933v-2.16h4.933l.21.261c.237.296.626.499.955.499.442 0 .985-.371 1.14-.78.286-.758-.303-1.631-1.1-1.631-.423 0-.83.202-1.037.516l-.163.246h-4.938v-2.16h1.617c1.05 0 1.67-.024 1.771-.07.27-.122.296-.29.296-1.838v-1.458l1.302.002.143.22c.217.334.586.496 1.067.465.312-.02.444-.063.632-.206.445-.34.602-1.003.352-1.492-.427-.838-1.58-.92-2.067-.148l-.127.201-.889.004c-.49.001-.955.02-1.035.042-.294.079-.33.282-.33 1.862v1.464h-2.732v-1.196c0-1.584.112-1.472-1.481-1.472h-1.187v-2.732H35.6c1.58 0 1.783-.036 1.862-.33.021-.08.04-.546.042-1.035l.004-.89.201-.127c.773-.486.69-1.64-.148-2.067-.408-.208-1.01-.127-1.35.18-.529.48-.466 1.494.117 1.872l.22.143.002 1.302h-1.458c-1.548 0-1.716.027-1.838.296-.046.1-.07.722-.07 1.771v1.617h-2.16v-4.938l.246-.163c.314-.207.516-.614.516-1.036 0-.798-.873-1.387-1.632-1.1-.408.154-.78.697-.78 1.139 0 .329.204.717.5.955l.26.21v4.933h-2.16V18.8c0-1.49.024-2.508.06-2.508.125 0 .473-.357.583-.601.213-.47.095-1.01-.3-1.38-.735-.686-1.994-.141-1.994.862 0 .422.202.829.516 1.036l.246.163v4.938h-2.16v-1.617c0-1.05-.024-1.671-.07-1.771-.122-.27-.29-.296-1.838-.296h-1.458l.002-1.302.22-.143c.583-.378.646-1.393.116-1.872-.339-.306-.963-.387-1.362-.177zm.373.83c-.154.09-.146.417.012.502a.55.55 0 00.186.066c.104 0 .262-.192.262-.318 0-.133-.16-.319-.274-.316a.504.504 0 00-.186.067zm6.404.032c-.134.135-.126.302.023.436.257.233.612-.09.42-.381-.116-.177-.298-.2-.443-.055zm3.042.055c-.192.292.163.614.42.381.154-.14.156-.295.006-.43-.163-.148-.308-.131-.426.049zm6.486-.055a.364.364 0 00-.1.218c0 .126.159.318.263.318.17 0 .31-.143.31-.318 0-.28-.282-.409-.473-.218zm-21.888 5.937c-.09.167-.027.362.131.412.294.093.519-.151.38-.412-.095-.176-.417-.176-.511 0zm27.695 0c-.09.167-.027.362.131.412.294.093.519-.151.38-.412-.095-.176-.417-.176-.511 0zM22.194 35.921h13.72V22.2h-13.72v13.72zm1.525-12.196c-.125.125-.127.211-.127 5.324v5.198l.294.276H34.24l.276-.294V23.874l-.294-.276h-5.188c-5.105 0-5.191.002-5.316.127zm.762 9.909h9.147v-9.147H24.48v9.147zm-9.492-6.293c-.233.257.09.611.381.42.184-.12.199-.293.038-.438-.152-.138-.283-.132-.42.018zm27.695-.023c-.145.145-.122.327.055.443.292.192.614-.163.381-.42-.134-.149-.301-.157-.436-.023zm-27.653 3.048c-.078.055-.142.15-.142.213 0 .134.193.323.329.323.123 0 .307-.2.307-.334 0-.09-.223-.3-.318-.3a.666.666 0 00-.176.098zm27.694 0c-.171.12-.18.29-.025.431.151.137.284.133.414-.01.138-.152.133-.238-.022-.393-.152-.153-.185-.155-.367-.028zm-27.736 6.48c-.117.117-.123.182-.034.35.133.247.57.104.57-.187 0-.104-.192-.263-.318-.263a.363.363 0 00-.218.1zm27.695 0c-.117.117-.123.182-.034.35.133.247.57.104.57-.187 0-.104-.192-.263-.318-.263a.363.363 0 00-.218.1zM20.908 42.66c-.154.09-.146.416.012.5a.55.55 0 00.186.066c.104 0 .262-.191.262-.317 0-.133-.16-.319-.274-.316a.504.504 0 00-.186.067zm6.41.047c-.137.151-.134.284.01.414.16.144.303.132.42-.036.128-.181.125-.214-.027-.367-.158-.157-.268-.16-.404-.01zm3.033.043c-.097.147-.097.17 0 .318.123.187.294.204.44.042.137-.15.133-.283-.01-.414-.165-.148-.31-.13-.43.054zm6.49-.059a.363.363 0 00-.1.218c0 .126.158.317.262.317.17 0 .31-.142.31-.317 0-.28-.282-.409-.473-.218z" fill="url(#paint0_linear_3132_3813)"/><defs><linearGradient id="paint0_linear_3132_3813" x1="14" y1="14" x2="44.723" y2="44.868" gradientUnits="userSpaceOnUse"><stop stop-color="#0ABD92"/><stop offset="1" stop-color="#009DB8"/></linearGradient></defs></svg>
